X:1
T:Title
%%score { 1 | 2 }
L:1/8
M:4/4
K:D
V:1 treble nm="Grand Piano"
V:2 bass 
V:1
 z4 z2[Q:1/4=100] D>E | F2 F2 F2 [FA]2 | [FA]2 [EG]4 [EG]>[DF] | [CE]2 [CE]2 [CE]2 [CB]2 | %4
[M:3/4] A6 |[M:1/4] D>E |[M:4/4] F2 F2 F2 [FA]2 | [FA]2 [EG]4 [EG]>[DF] | [CE]2 [CE]2 [CB]2 [CA]2 | %9
[M:3/4] [DF]6 |[M:1/4] [FA]>[FA] |[M:4/4] [Fd]2 [Fd]2 [Fd]2 [Ac]2 | [Ac]2 B4 c>B | %13
 A2 A2 [CEA]2 [A,CG]2 |[M:3/4] [A,DF]6 |[M:1/4] [A,FA]>[A,FA] |[M:4/4] [Fd]2 [Fd]2 [Fd]2 [FA]2 | %17
 [Ac]2 B4 B>B | %18
 A2 A2 B2 c2[Q:1/4=98][Q:1/4=97][Q:1/4=95][Q:1/4=94][Q:1/4=92][Q:1/4=91][Q:1/4=89][Q:1/4=88][Q:1/4=86][Q:1/4=84][Q:1/4=83][Q:1/4=81][Q:1/4=80][Q:1/4=78][Q:1/4=77] | %19
[M:3/4] [Fd]6 |] %20
V:2
 z4 z2 [D,F,]>[D,G,D] | [D,A,D]2 [D,A,D]2 [D,A,D]2 [D,A,]2 | [A,,A,]2 [A,,A,]4 [A,,A,]>[A,,A,] | %3
 [A,,A,]2 [A,,A,]2 [A,,A,]2 [A,,G,]2 |[M:3/4] [D,F,D]6 |[M:1/4] [D,F,]>[D,G,D] | %6
[M:4/4] [D,A,D]2 [D,A,D]2 [D,A,D]2 [D,A,]2 | [A,,A,]2 [A,,A,]4 [A,,A,]>[A,,A,] | %8
 [A,,A,]2 [A,,A,]2 [A,,A,]2 [A,,A,]2 |[M:3/4] [D,A,]6 |[M:1/4] [D,A,]>[D,A,] | %11
[M:4/4] [D,A,]2 [D,A,]2 [D,A,]2 [D,D]2 | [G,D]2 [G,DG]4 [G,DG]>[G,DG] | %13
 [A,DF]2 [A,DF]2[K:bass] A,,2 A,,2 |[M:3/4] D,6 |[M:1/4] D,>D, | %16
[M:4/4] [D,A,]2 [D,A,]2 [D,A,]2 [D,D]2 | [G,D]2 [G,DG]4 [G,DG]>[G,DG] | %18
 [A,DF]2 [A,DF]2 [A,CG]2 [A,G]2 |[M:3/4][K:bass] [D,A,]6 |] %20

